src/styles/images/menu.svg

<svg width="22" height="22" viewBox="0 0 22 22" fill="none" xmlns="http://www.w3.org/2000/svg">
<path d="M1.06452 9.42886L20.9355 9.42885C21.2178 9.42885 21.4886 9.59442 21.6882 9.88912C21.8878 10.1838 22 10.5835 22 11.0003C22 11.4171 21.8878 11.8168 21.6882 12.1115C21.4886 12.4062 21.2178 12.5717 20.9355 12.5717L1.06452 12.5717C0.78219 12.5717 0.511425 12.4062 0.311789 12.1115C0.112154 11.8168 -3.41906e-08 11.4171 -4.65315e-08 11.0003C-5.88724e-08 10.5835 0.112154 10.1838 0.311788 9.88912C0.511425 9.59442 0.78219 9.42886 1.06452 9.42886Z" fill="white"/>
<path d="M1.06452 18.8571L20.9355 18.8571C21.2178 18.8571 21.4886 19.0227 21.6882 19.3174C21.8878 19.6121 22 20.0118 22 20.4286C22 20.8453 21.8878 21.245 21.6882 21.5397C21.4886 21.8344 21.2178 22 20.9355 22L1.06452 22C0.78219 22 0.511425 21.8344 0.311789 21.5397C0.112154 21.245 -3.56302e-08 20.8453 -4.84908e-08 20.4286C-6.13513e-08 20.0118 0.112154 19.6121 0.311788 19.3174C0.511425 19.0227 0.78219 18.8571 1.06452 18.8571Z" fill="white"/>
<path d="M1.06452 2.3047e-05L20.9355 2.17648e-05C21.2178 2.17466e-05 21.4886 0.165581 21.6882 0.460282C21.8878 0.754982 22 1.15468 22 1.57145C22 1.98822 21.8878 2.38792 21.6882 2.68262C21.4886 2.97732 21.2178 3.14288 20.9355 3.14288L1.06452 3.14288C0.78219 3.14288 0.511425 2.97732 0.311789 2.68262C0.112154 2.38792 -3.41906e-08 1.98822 -4.65315e-08 1.57145C-5.88724e-08 1.15468 0.112154 0.754984 0.311788 0.460283C0.511425 0.165583 0.78219 2.30652e-05 1.06452 2.3047e-05Z" fill="white"/>
</svg>

<svg width="22" height="22" fill="none" xmlns="http://www.w3.org/2000/svg"><path d="M1.065 9.429h19.87c.283 0 .554.165.753.46.2.295.312.695.312 1.111 0 .417-.112.817-.312 1.111-.2.295-.47.46-.752.46H1.065c-.283 0-.554-.165-.753-.46-.2-.294-.312-.694-.312-1.11 0-.417.112-.817.312-1.112.2-.295.47-.46.753-.46ZM1.065 18.857h19.87c.283 0 .554.166.753.46.2.295.312.695.312 1.112 0 .416-.112.816-.312 1.11-.2.295-.47.461-.752.461H1.065c-.283 0-.554-.166-.753-.46-.2-.295-.312-.695-.312-1.111 0-.417.112-.817.312-1.112.2-.294.47-.46.753-.46ZM1.065 0h19.87c.283 0 .554.166.753.46.2.295.312.695.312 1.111 0 .417-.112.817-.312 1.112-.2.294-.47.46-.752.46H1.065c-.283 0-.554-.166-.753-.46C.112 2.388 0 1.988 0 1.57 0 1.155.112.755.312.461.512.165.782 0 1.065 0Z" fill="#fff"/></svg>
